icon-themes/breeze_svg/cmd/lc_greatestheight.svg

<svg viewBox="0 0 24 24" xmlns="http://www.w3.org/2000/svg"><path d="m4 4v16h6v-16h-1-4zm12.5 0-.1875.21875-3.3125 3.28125.71875.71875 2.28125-2.3125v6.09375h1v-6.09375l2.3125 2.3125.6875-.71875-3.28125-3.28125zm-3.5 10v6h7v-1-5h-5.833984z" fill="#4d4d4d"/></svg>

<svg xmlns="http://www.w3.org/2000/svg" viewBox="0 0 24 24">
 <path 
     style="fill:#4d4d4d" 
     d="M 4 4 L 4 20 L 10 20 L 10 4 L 9 4 L 5 4 L 4 4 z M 16.5 4 L 16.3125 4.21875 L 13 7.5 L 13.71875 8.21875 L 16 5.90625 L 16 12 L 17 12 L 17 5.90625 L 19.3125 8.21875 L 20 7.5 L 16.71875 4.21875 L 16.5 4 z M 13 14 L 13 20 L 20 20 L 20 19 L 20 14 L 14.166016 14 L 13 14 z "
     />
 </svg>
